X:1
T:The Fair of Turloughmore
M:4/4
L:1/4
K:C
 z2 z D| E G E D| E2 C3/2 D/2| E G A c| c3 A| B A A c| B G E3/2 E/2|\
 G G A3/2 A/2| A3E/2-G/2| G G G A| A G E G| A c c B| A3 D| E G A G|\
 E3/2 E/2 E C| D D C3/2 C/2| C3 z|
